assets/haskelloid.svg

<?xml version="1.0" encoding="UTF-8"?>
<svg xmlns="http://www.w3.org/2000/svg" xmlns:xlink="http://www.w3.org/1999/xlink" width="481.8897pt" height="340.1574pt" viewBox="0 0 481.8897 340.1574" version="1.1">
<defs>
<clipPath id="clip1">
  <path d="M 0 340.15625 L 481.890625 340.15625 L 481.890625 0 L 0 0 L 0 340.15625 Z M 0 340.15625 "/>
</clipPath>
</defs>
<g id="surface0">
<g clip-path="url(#clip1)" clip-rule="nonzero">
<path style=" stroke:none;fill-rule: nonzero; fill: rgb(40%,40%,40%); fill-opacity: 1;" d="M 0 340.15625 L 113.386719 170.078125 L 0 0 L 85.039062 0 L 198.425781 170.078125 L 85.039062 340.15625 L 0 340.15625 Z M 0 340.15625 "/>
<path style=" stroke:none;fill-rule: nonzero; fill: rgb(60%,60%,60%); fill-opacity: 1;" d="M 113.386719 340.15625 L 226.773438 170.078125 L 113.386719 0 L 198.425781 0 L 425.195312 340.15625 L 340.15625 340.15625 L 269.292969 233.859375 L 198.425781 340.15625 L 113.386719 340.15625 Z M 113.386719 340.15625 "/>
<path style=" stroke:none;fill-rule: nonzero; fill: rgb(40%,40%,40%); fill-opacity: 1;" d="M 387.402344 240.945312 L 349.609375 184.253906 L 481.890625 184.25 L 481.890625 240.945312 L 387.402344 240.945312 Z M 387.402344 240.945312 "/>
<path style=" stroke:none;fill-rule: nonzero; fill: rgb(40%,40%,40%); fill-opacity: 1;" d="M 330.710938 155.90625 L 292.914062 99.214844 L 481.890625 99.210938 L 481.890625 155.90625 L 330.710938 155.90625 Z M 330.710938 155.90625 "/>
</g>
</g>
</svg>

<?xml version="1.0" encoding="UTF-8" standalone="no"?>
<svg
   xmlns:dc="http://purl.org/dc/elements/1.1/"
   xmlns:cc="http://creativecommons.org/ns#"
   xmlns:rdf="http://www.w3.org/1999/02/22-rdf-syntax-ns#"
   xmlns:svg="http://www.w3.org/2000/svg"
   xmlns="http://www.w3.org/2000/svg"
   xmlns:sodipodi="http://sodipodi.sourceforge.net/DTD/sodipodi-0.dtd"
   xmlns:inkscape="http://www.inkscape.org/namespaces/inkscape"
   width="481.8897pt"
   height="340.1574pt"
   viewBox="0 0 481.8897 340.1574"
   version="1.1"
   id="svg18"
   sodipodi:docname="haskelloid.svg"
   inkscape:export-filename="/home/nek0/workspace/Haskell/haskelloids/assets/haskelloid.png"
   inkscape:export-xdpi="62"
   inkscape:export-ydpi="62"
   inkscape:version="0.92.2 (5c3e80d, 2017-08-06)">
  <metadata
     id="metadata22">
    <rdf:RDF>
      <cc:Work
         rdf:about="">
        <dc:format>image/svg+xml</dc:format>
        <dc:type
           rdf:resource="http://purl.org/dc/dcmitype/StillImage" />
      </cc:Work>
    </rdf:RDF>
  </metadata>
  <sodipodi:namedview
     pagecolor="#ffffff"
     bordercolor="#666666"
     borderopacity="1"
     objecttolerance="10"
     gridtolerance="10"
     guidetolerance="10"
     inkscape:pageopacity="0"
     inkscape:pageshadow="2"
     inkscape:window-width="1598"
     inkscape:window-height="820"
     id="namedview20"
     showgrid="false"
     inkscape:zoom="0.52034733"
     inkscape:cx="234.77911"
     inkscape:cy="226.77161"
     inkscape:window-x="0"
     inkscape:window-y="26"
     inkscape:window-maximized="1"
     inkscape:current-layer="svg18" />
  <defs
     id="defs5">
    <clipPath
       id="clip1">
      <path
         d="M 0 340.15625 L 481.890625 340.15625 L 481.890625 0 L 0 0 L 0 340.15625 Z M 0 340.15625 "
         id="path2" />
    </clipPath>
  </defs>
  <path
     style="clip-rule:nonzero;fill:#9e4e2e;fill-opacity:1;fill-rule:nonzero;stroke:none"
     d="M 0,340.15625 113.38672,170.07812 0,0 H 85.039062 L 198.42578,170.07812 85.039062,340.15625 Z m 0,0"
     id="path7"
     inkscape:connector-curvature="0" />
  <path
     style="clip-rule:nonzero;fill:#d18161;fill-opacity:1;fill-rule:nonzero;stroke:none"
     d="M 113.38672,340.15625 226.77344,170.07812 113.38672,0 h 85.03906 L 425.19531,340.15625 H 340.15625 L 269.29297,233.85937 198.42578,340.15625 Z m 0,0"
     id="path9"
     inkscape:connector-curvature="0" />
  <path
     style="clip-rule:nonzero;fill:#9e4e2e;fill-opacity:1;fill-rule:nonzero;stroke:none"
     d="m 387.40234,240.94531 -37.79297,-56.6914 132.28125,-0.004 v 56.69531 z m 0,0"
     id="path11"
     inkscape:connector-curvature="0" />
  <path
     style="clip-rule:nonzero;fill:#9e4e2e;fill-opacity:1;fill-rule:nonzero;stroke:none"
     d="m 330.71094,155.90625 -37.79688,-56.691406 188.97656,-0.0039 v 56.695316 z m 0,0"
     id="path13"
     inkscape:connector-curvature="0" />
</svg>
